icons/document-chevron-down.svg

<svg xmlns="http://www.w3.org/2000/svg" width="24" height="24" viewBox="0 0 24 24">
  <path d="M12,1 L12,8 C12,8.55228475 12.4477153,9 13,9 L20,9 L20,21 C20,22.1045695 19.1045695,23 18,23 L6,23 C4.8954305,23 4,22.1045695 4,21 L4,3 C4,1.8954305 4.8954305,1 6,1 L12,1 Z M8.38710056,12.7097046 L8.29289322,12.7928932 C7.93240926,13.1533772 7.90467972,13.7206082 8.20970461,14.1128994 L8.29289322,14.2071068 L11.2928932,17.2071068 C11.6533772,17.5675907 12.2206082,17.5953203 12.6128994,17.2902954 L12.7071068,17.2071068 L15.7071068,14.2071068 C16.0976311,13.8165825 16.0976311,13.1834175 15.7071068,12.7928932 C15.3466228,12.4324093 14.7793918,12.4046797 14.3871006,12.7097046 L14.2928932,12.7928932 L12,15.085 L9.70710678,12.7928932 C9.34662282,12.4324093 8.77939176,12.4046797 8.38710056,12.7097046 Z M14,1 L20,7 L15,7 C14.4871642,7 14.0644928,6.61395981 14.0067277,6.11662113 L14,6 L14,1 Z"/>
</svg>

<svg xmlns="http://www.w3.org/2000/svg" viewBox="0 0 24 24">
  <path d="M12 1v7a1 1 0 0 0 1 1h7v12a2 2 0 0 1-2 2H6a2 2 0 0 1-2-2V3c0-1.1.9-2 2-2h6zM8.39 12.71l-.1.08a1 1 0 0 0-.08 1.32l.08.1 3 3a1 1 0 0 0 1.32.08l.1-.08 3-3a1 1 0 0 0-1.32-1.5l-.1.08L12 15.1l-2.3-2.3a1 1 0 0 0-1.31-.08zM14 1l6 6h-5a1 1 0 0 1-1-.88V1z"/>
</svg>
